X: 1
T: the Ewie wi' the Crookit Horn
R: strathspey
%D:1811
Z: 2006 John Chambers <jc:trillian.mit.edu>
S: handwritten MS of unknown origin
M: C
L: 1/16
K: Gmix
|: "G"DG3 G3A "F"F3G A3F | "G"DG3 G2AB "Dm"c3A "G"B3G \
|  "F"A3B c3B A3G F3C | "G"DG3 G3B "Dm"A3F "G"G4 :|
K: Gdor
[|"Gm"Gg3 g3a "F"f3g a3f | "Gm"dg3 g3a "Dm"f3a "Gm"g4 \
| "Gm"dg3 g3a bag2 "F"agf2 | "Gm"dg3 b3g "Dm"a3f "Gm"g4 ||
|| "F"f3g f3d c3B AF3 | "Gm"GABc d3B "Dm"c3A d3e \
|  "F"fa3 df3 "Dm"cf3 AF3 | "Gm"GABc d3B "Dm"c3A "Gm"G4 |]
